ALTDEU
CUT[Nachtigall]
REG[Europa, Mitteleuropa, Deutschland]
KEY[A0157  04  F 4/2]
MEL[1_  1_2_3_4_  5__3_
    3_  6__5_4_  5__3_
    3_  6_6_5_3_  54321_0_  0_
    1_1_3_  2_1_-7_-7_  -6__0_
    -7_  1_.11_-7_  -6__-5__  0_
    1_1_1_  1_-7_1_.-7  -6_
    -5_1_3_  2__0_
    1_  1_.-7-6_-5_  2_2_2_2_  1__. //] >>
FCT[Romanze, Ballade, Lied]
CMT[Forster I. 1539 No. 47.]
